file-arrow-left-right-outline.svg

<svg fill="currentColor" viewBox="0 0 24 24"><path d="M13.09 20c.12.72.37 1.39.72 2H6c-1.11 0-2-.89-2-2V4a2 2 0 0 1 2-2h8l6 6v5.09c-.33-.05-.66-.09-1-.09s-.67.04-1 .09V9h-5V4H6v16zM23 17l-3-2.5V16h-4v2h4v1.5zm-5 1.5L15 21l3 2.5V22h4v-2h-4z"/></svg>

<svg  viewBox="0 0 24 24" fill="currentColor"><path  d="M13.09 20C13.21 20.72 13.46 21.39 13.81 22H6C4.89 22 4 21.11 4 20V4C4 2.9 4.89 2 6 2H14L20 8V13.09C19.67 13.04 19.34 13 19 13C18.66 13 18.33 13.04 18 13.09V9H13V4H6V20H13.09M23 17L20 14.5V16H16V18H20V19.5L23 17M18 18.5L15 21L18 23.5V22H22V20H18V18.5Z"/></svg>
